X:1
T:Title
%%score ( 1 2 ) { 3 | 4 }
L:1/8
Q:1/4=95
M:4/4
K:Db
V:1 treble nm="Grand Piano, Soprano"
V:2 treble 
V:3 treble nm="Choir Pad, Rally for the Right"
V:4 bass 
V:1
 [FA]>[FA] [FA]>[GB] [FA]2 [DF]2 | [Fd]>[Fd] [Fd]>[Fd] [Ad]2 [GB]2 | %2
w: By~Oscar~Williams * * * * *||
 [Gc]>[Gc] [Gc]>[Gc] [Gc]2 [GB]>[Gc] | [Fd]>[Fd] [Fd]>[GB] [FA]4 | %4
w: ||
 [FA]>[FA] [FA]>[GB] [FA]2 [DF]2 | [Fd]>[Fd] [Fd]>[Fd] [Ad]2 [GB]2 | %6
w: ||
 [Gc]>[Gc] [Gc]>[Gc] [Gc]2 [GB]>[Gc] | [Fd]>[Fd] [Gd]>[Gd] [Fd]4 | d6 z2 | %9
w: |||
 [GB]>[GB] [GB]>[GB] [GB]2 z2 | c6 .B2 | [Fd]>[Fd] [Gd]>[GB] [FA]2 z2 | d6 z2 | %13
w: ||||
 [GB]>[GB] [GB]>[GB] [GB]2 z2 | [Gc]>[Gc] [Gc]>[Gc] [Gc]2 [GB]>[Gc] | [Fd]2 [Gd]2 [Fd]4- | %16
w: |||
 [Fd]4 z4 |] %17
w: |
V:2
 x8 | x8 | x8 | x8 | x8 | x8 | x8 | x8 | A2 A2 F2 [FA]2 | x8 | G2 G2 G2 G-[Gc] | x8 | %12
 A2 A2 F2 [FA]2 | x8 | x8 | x8 | x8 |] %17
V:3
 D>D D>D D2[K:bass] A,2 | A,>A, A,>A,[K:treble] D2 D2 | E>E E>E E2 C>[K:bass]A, | %3
 A,>A, B,>D[K:treble] D4 | D>D D>D D2[K:bass] A,2 | A,>A, A,>A,[K:treble] D2 D2 | %6
 E>E E>E E2 C>[K:bass]A, | A,>A, B,>B, A,4 | F2 F2 D2 D2 | D>D D>D D2[K:bass] F,2 | E2 E2 E2 E2 | %11
 D>A, B,>[K:treble]D D2 D2 | F2 F2 D2 D2 | D>D D>D D2[K:bass] F,2 | E>E E>E E2 C>A, | %15
 A,2 B,2 A,4- | A,4 z4 |] %17
V:4
 D,>D, D,>D, D,2 D,2 | D,>D, D,>D, F,2 F,2 | E,>E, E,>E, A,2 A,2 | D,>D, D,>D, D,4 | %4
 D,>D, D,>D, D,2 D,2 | D,>D, D,>D, F,2 G,2 | G,>G, G,>G, A,2 A,2 | D,>D, D,>D, D,4 | %8
 D,2 D,2 D,2 D,2 | G,>G, G,>G, G,2 z2 | E,2 E,2 A,2 A,2 | D,>D, D,>D, D,2 z2 | D,2 D,2 D,2 D,2 | %13
 G,>G, G,>G, G,2 z2 | E,>E, E,>E, A,2 A,2 | D,2 D,2 D,4- | D,4 z4 |] %17

